svg/fluentui-system-icons/ic_fluent_table_simple_multiple_20_regular.svg

<svg width="20" height="20" viewBox="0 0 20 20" fill="none" xmlns="http://www.w3.org/2000/svg">
<path d="M4.5 2C3.11929 2 2 3.11929 2 4.5V12.5C2 13.8807 3.11929 15 4.5 15H12.5C13.8807 15 15 13.8807 15 12.5V4.5C15 3.11929 13.8807 2 12.5 2H4.5ZM14 8H9V3H12.5C13.3284 3 14 3.67157 14 4.5V8ZM8 8H3V4.5C3 3.67157 3.67157 3 4.5 3H8V8ZM3 9H8V14H4.5C3.67157 14 3 13.3284 3 12.5V9ZM9 9H14V12.5C14 13.3284 13.3284 14 12.5 14H9V9ZM7.50077 18C6.29129 18 5.28242 17.1412 5.05078 16H6.08612C6.29204 16.5826 6.84766 17 7.50077 17H13.2508C15.3218 17 17.0008 15.3211 17.0008 13.25L17.0008 7.50004C17.0008 6.84693 16.5834 6.29131 16.0008 6.08539V5.05005C17.1419 5.28168 18.0008 6.29056 18.0008 7.50004V13.25C18.0008 15.8734 15.8741 18 13.2508 18H7.50077Z" fill="#212121"/>
</svg>

<svg xmlns="http://www.w3.org/2000/svg" width="20" height="20"><path d="M4.5 2A2.5 2.5 0 0 0 2 4.5v8A2.5 2.5 0 0 0 4.5 15h8a2.5 2.5 0 0 0 2.5-2.5v-8A2.5 2.5 0 0 0 12.5 2h-8ZM14 8H9V3h3.5A1.5 1.5 0 0 1 14 4.5V8ZM8 8H3V4.5A1.5 1.5 0 0 1 4.5 3H8v5ZM3 9h5v5H4.5A1.5 1.5 0 0 1 3 12.5V9Zm6 0h5v3.5a1.5 1.5 0 0 1-1.5 1.5H9V9Zm-1.5 9a2.5 2.5 0 0 1-2.45-2h1.036a1.5 1.5 0 0 0 1.415 1h5.75A3.75 3.75 0 0 0 17 13.25V7.5a1.5 1.5 0 0 0-1-1.415V5.05a2.5 2.5 0 0 1 2 2.45v5.75A4.75 4.75 0 0 1 13.25 18H7.5Z"/></svg>
